; generated by PrusaSlicer 2.0.0+linux64 on 2019-07-06 at 10:06:56

; 

; external perimeters extrusion width = 0.42mm
; perimeters extrusion width = 0.42mm
; infill extrusion width = 0.42mm
; solid infill extrusion width = 0.42mm
; top infill extrusion width = 0.42mm
; first layer extrusion width = 0.42mm

M73 P0 R137
M73 Q0 S135
M201 X4000 Y4000 Z400 E1000 ; sets maximum accelerations, mm/sec^2
M203 X500 Y500 Z12 E120 ; sets maximum feedrates, mm/sec
M204 P1500 R1200 T1500 ; sets acceleration (P, T) and retract acceleration (R), mm/sec^2
M205 X6.00 Y6.00 Z0.40 E1.00 ; sets the jerk limits, mm/sec
M205 S0 T0 ; sets the minimum extruding and travel feed rate, mm/sec
M107
M83  ; extruder relative mode
M140 S65 ; set bed temp
M109 S160 ; Set extruder temp before bed level
M190 S65 ; wait for bed temp

G28 W ; home all without mesh bed level
G80 ; mesh bed leveling

M109 S215 ; wait for extruder temp

G1 Y-3.0 F1000.0 ; go outside print area
G92 E0.0
G1 E8 ; Purge Bubble
M73 Q0 S135
M73 P0 R137
G1 X60.0 E9.0  F1000.0 ; intro line
G1 X100.0 E12.5  F1000.0 ; intro line
G92 E0.0
M900 K30; Filament gcode
G21 ; set units to millimeters
G90 ; use absolute coordinates
M83 ; use relative distances for extrusion
;BEFORE_LAYER_CHANGE





G1 E-0.80000 F1800.00000
G1 Z0.400 F7200.000
;AFTER_LAYER_CHANGE

G1 X105.186 Y88.920
G1 Z0.200
G1 E0.80000 F1800.00000
M204 S1000
G1 F1200
G1 X106.232 Y88.761 E0.03152
G1 X147.484 Y88.731 E1.22873
G1 X148.645 Y88.896 E0.03493
G1 X149.569 Y89.390 E0.03123
G1 X149.955 Y89.778 E0.01629
G1 X150.238 Y90.215 E0.01553
G1 X150.429 Y90.709 E0.01577
G1 X150.515 Y91.226 E0.01561
G1 X150.535 Y118.658 E0.81712
G1 X150.454 Y119.239 E0.01747
G1 X150.247 Y119.781 E0.01727
G1 X149.907 Y120.282 E0.01803
G1 X149.469 Y120.683 E0.01769
G1 X148.599 Y121.107 E0.02885
G1 X147.595 Y121.253 E0.03021
G1 X106.254 Y121.268 E1.23139
G1 X105.482 Y121.184 E0.02313
G1 X104.832 Y120.968 E0.02041
G1 X104.267 Y120.618 E0.01981
G1 X103.796 Y120.122 E0.02036
G1 X103.443 Y119.438 E0.02293
G1 X103.307 Y118.642 E0.02405
G1 X103.292 Y91.391 E0.81173
G1 X103.369 Y90.795 E0.01791
G1 X103.574 Y90.247 E0.01742
G1 X103.918 Y89.735 E0.01839
G1 X104.355 Y89.334 E0.01766
G1 X105.132 Y88.946 E0.02586
G1 E-0.08000 F1800.00000
G1 F5760
G1 X106.232 Y88.761 E-0.33119
G1 X107.421 Y88.761 E-0.35281
G1 E-0.03600 F1800.00000
G1 Z0.600 F7200.000
G1 X141.276 Y102.081
G1 Z0.200
G1 E0.80000 F1800.00000
G1 F1200
G1 X140.691 Y103.243 E0.03875
G1 X141.003 Y103.748 E0.01768
G1 X141.142 Y104.172 E0.01330
G1 X141.196 Y104.467 E0.00892
G1 X141.219 Y104.865 E0.01188
G1 X141.205 Y105.374 E0.01519
G1 X141.164 Y105.659 E0.00856
G1 X141.082 Y105.926 E0.00833
G1 X140.974 Y106.189 E0.00846
G1 X140.832 Y106.423 E0.00817
G1 X140.592 Y106.715 E0.01126
G1 X140.269 Y106.974 E0.01233
G1 X139.805 Y107.183 E0.01515
G1 X139.297 Y107.254 E0.01527
G1 X138.831 Y107.195 E0.01398
G1 X138.648 Y107.129 E0.00580
G1 X136.725 Y107.129 E0.05727
G1 X136.726 Y106.942 E0.00557
G1 X136.194 Y107.130 E0.01679
G1 X135.734 Y107.221 E0.01398
G1 X135.106 Y107.244 E0.01873
G1 X134.808 Y107.222 E0.00891
G1 X134.499 Y107.163 E0.00936
G1 X134.193 Y107.044 E0.00979
G1 X133.723 Y106.764 E0.01630
G1 X133.678 Y106.706 E0.00219
G1 X133.224 Y106.941 E0.01523
G1 X132.690 Y107.130 E0.01685
G1 X132.230 Y107.221 E0.01398
G1 X131.602 Y107.244 E0.01873
G1 X131.304 Y107.222 E0.00891
G1 X130.995 Y107.163 E0.00936
G1 X130.689 Y107.044 E0.00979
G1 X130.335 Y106.833 E0.01227
G1 X130.335 Y108.059 E0.03650
G1 X126.017 Y108.059 E0.12862
G1 X126.017 Y106.794 E0.03766
G1 X125.648 Y107.032 E0.01308
G1 X125.401 Y107.133 E0.00793
G1 X125.071 Y107.209 E0.01008
G1 X124.561 Y107.250 E0.01524
G1 X124.138 Y107.221 E0.01264
G1 X123.712 Y107.134 E0.01296
G1 X123.382 Y106.987 E0.01076
G1 X123.039 Y106.757 E0.01230
G1 X123.039 Y108.299 E0.04593
G1 X120.557 Y108.299 E0.07393
G1 X120.556 Y106.626 E0.04981
G1 X120.204 Y106.906 E0.01340
G1 X119.814 Y107.101 E0.01300
G1 X119.393 Y107.217 E0.01299
G1 X118.968 Y107.250 E0.01271
G1 X118.469 Y107.214 E0.01488
G1 X118.049 Y107.104 E0.01294
G1 X117.746 Y106.940 E0.01026
G1 X117.365 Y106.659 E0.01411
G1 X117.241 Y106.459 E0.00700
G1 X117.115 Y106.633 E0.00642
G1 X116.772 Y106.906 E0.01306
G1 X116.382 Y107.101 E0.01300
G1 X115.961 Y107.217 E0.01299
G1 X115.536 Y107.250 E0.01271
G1 X115.037 Y107.214 E0.01488
G1 X114.617 Y107.104 E0.01294
G1 X114.314 Y106.940 E0.01026
G1 X113.933 Y106.659 E0.01411
G1 X113.771 Y106.396 E0.00919
G1 X113.574 Y106.018 E0.01269
G1 X113.455 Y105.576 E0.01363
G1 X113.415 Y104.959 E0.01842
G1 X113.491 Y103.998 E0.02871
G1 X113.612 Y103.998 E0.00359
G1 X113.248 Y103.317 E0.02301
G1 X114.107 Y102.848 E0.02915
G1 X114.516 Y102.698 E0.01297
G1 X114.958 Y102.599 E0.01351
G1 X115.262 Y102.571 E0.00908
G1 X115.712 Y102.578 E0.01340
G1 X116.097 Y102.640 E0.01161
G1 X116.591 Y102.824 E0.01571
G1 X116.848 Y102.986 E0.00906
G1 X117.022 Y103.130 E0.00672
G1 X117.539 Y102.848 E0.01756
G1 X117.948 Y102.698 E0.01297
G1 X118.390 Y102.599 E0.01351
G1 X118.694 Y102.571 E0.00908
G1 X119.144 Y102.578 E0.01340
G1 X119.529 Y102.640 E0.01161
G1 X120.023 Y102.824 E0.01571
G1 X120.101 Y102.873 E0.00276
G1 X120.946 Y102.603 E0.02643
G1 X121.385 Y102.563 E0.01313
G1 X121.799 Y102.605 E0.01237
G1 X122.048 Y102.677 E0.00772
G1 X122.263 Y102.783 E0.00716
G1 X122.543 Y102.963 E0.00989
G1 X122.799 Y103.291 E0.01241
G1 X122.908 Y103.145 E0.00540
G1 X123.483 Y102.772 E0.02042
G1 X123.924 Y102.624 E0.01387
G1 X124.399 Y102.571 E0.01422
G1 X124.772 Y102.574 E0.01113
G1 X125.289 Y102.647 E0.01555
G1 X125.629 Y102.773 E0.01078
G1 X125.963 Y102.969 E0.01154
G1 X125.963 Y102.684 E0.00849
G1 X131.569 Y102.684 E0.16701
G1 X131.763 Y102.624 E0.00603
G1 X132.081 Y102.574 E0.00961
G1 X132.533 Y102.582 E0.01345
G1 X132.882 Y102.667 E0.01072
G1 X133.157 Y102.796 E0.00903
G1 X133.157 Y102.684 E0.00333
G1 X135.073 Y102.684 E0.05709
G1 X135.267 Y102.624 E0.00603
G1 X135.585 Y102.574 E0.00961
G1 X136.037 Y102.582 E0.01345
G1 X136.386 Y102.667 E0.01072
G1 X136.819 Y102.871 E0.01423
G1 X136.878 Y102.662 E0.00646
G1 X136.997 Y102.425 E0.00789
G1 X137.187 Y102.165 E0.00960
G1 X137.431 Y101.893 E0.01090
G1 X137.937 Y101.598 E0.01742
G1 X138.255 Y101.473 E0.01020
G1 X138.588 Y101.403 E0.01013
G1 X138.956 Y101.371 E0.01100
G1 X139.456 Y101.379 E0.01490
G1 X140.023 Y101.485 E0.01719
G1 X140.430 Y101.630 E0.01286
G1 X141.223 Y102.053 E0.02678
G1 X140.774 Y102.241 F7200.000
G1 F1200
G1 X140.212 Y103.354 E0.03715
G1 X140.440 Y103.554 E0.00902
G1 X140.658 Y103.908 E0.01239
G1 X140.776 Y104.265 E0.01120
G1 X140.821 Y104.512 E0.00745
G1 X140.842 Y104.870 E0.01070
G1 X140.829 Y105.342 E0.01405
G1 X140.795 Y105.576 E0.00705
G1 X140.727 Y105.799 E0.00696
G1 X140.637 Y106.018 E0.00705
G1 X140.523 Y106.205 E0.00649
G1 X140.326 Y106.446 E0.00929
G1 X140.070 Y106.650 E0.00974
G1 X139.699 Y106.817 E0.01212
G1 X139.295 Y106.873 E0.01216
G1 X138.920 Y106.826 E0.01126
G1 X138.694 Y106.744 E0.00715
G1 X138.486 Y106.622 E0.00720
G1 X138.436 Y106.751 E0.00415
G1 X137.103 Y106.751 E0.03968
G1 X137.104 Y106.321 E0.01282
G1 X136.572 Y106.597 E0.01785
G1 X136.297 Y106.704 E0.00880
G1 X136.102 Y106.763 E0.00606
G1 X135.690 Y106.845 E0.01251
G1 X135.113 Y106.867 E0.01720
G1 X134.857 Y106.847 E0.00763
G1 X134.603 Y106.799 E0.00770
G1 X134.358 Y106.704 E0.00783
G1 X133.977 Y106.477 E0.01322
G1 X133.737 Y106.166 E0.01169
G1 X133.608 Y105.893 E0.00899
G1 X133.560 Y105.668 E0.00687
G1 X133.534 Y105.381 E0.00857
G1 X133.534 Y104.826 E0.01654
G1 X133.256 Y105.144 E0.01256
G1 X133.145 Y105.245 E0.00450
G1 X132.975 Y105.325 E0.00558
G1 X133.510 Y106.368 E0.03490
G1 X133.068 Y106.597 E0.01483
G1 X132.793 Y106.704 E0.00880
G1 X132.598 Y106.763 E0.00606
G1 X132.186 Y106.845 E0.01251
G1 X131.609 Y106.867 E0.01720
G1 X131.353 Y106.847 E0.00763
G1 X131.099 Y106.799 E0.00770
G1 X130.854 Y106.704 E0.00783
G1 X130.473 Y106.477 E0.01322
G1 X130.233 Y106.166 E0.01169
G1 X130.104 Y105.893 E0.00899
G1 X130.056 Y105.668 E0.00687
G1 X130.030 Y105.381 E0.00857
G1 X130.030 Y104.567 E0.02425
G1 X129.878 Y104.514 E0.00479
G1 X128.442 Y106.326 E0.06885
G1 X129.958 Y106.326 E0.04514
G1 X129.958 Y107.681 E0.04039
G1 X126.394 Y107.681 E0.10616
G1 X126.394 Y106.494 E0.03539
G1 X127.951 Y104.489 E0.07559
G1 X126.423 Y104.489 E0.04549
G1 X126.448 Y104.746 E0.00767
G1 X126.437 Y105.240 E0.01472
G1 X126.389 Y105.594 E0.01063
G1 X126.265 Y105.936 E0.01084
G1 X125.948 Y106.390 E0.01648
G1 X125.473 Y106.696 E0.01686
G1 X125.287 Y106.772 E0.00598
G1 X125.014 Y106.835 E0.00835
G1 X124.559 Y106.872 E0.01359
G1 X124.189 Y106.847 E0.01105
G1 X123.828 Y106.773 E0.01098
G1 X123.565 Y106.655 E0.00857
G1 X123.171 Y106.391 E0.01414
G1 X123.043 Y106.227 E0.00621
G1 X122.826 Y105.879 E0.01221
G1 X122.662 Y105.926 E0.00508
G1 X122.662 Y107.922 E0.05945
G1 X120.934 Y107.922 E0.05147
G1 X120.933 Y105.391 E0.07537
G1 X120.727 Y105.372 E0.00614
G1 X120.674 Y105.656 E0.00859
G1 X120.537 Y106.004 E0.01115
G1 X120.272 Y106.370 E0.01347
G1 X120.000 Y106.586 E0.01035
G1 X119.678 Y106.747 E0.01073
G1 X119.328 Y106.844 E0.01082
G1 X118.966 Y106.872 E0.01080
G1 X118.531 Y106.841 E0.01299
G1 X118.189 Y106.751 E0.01055
G1 X117.949 Y106.621 E0.00813
G1 X117.647 Y106.398 E0.01116
G1 X117.243 Y105.655 E0.02522
G1 X117.105 Y106.004 E0.01118
G1 X116.840 Y106.370 E0.01347
G1 X116.568 Y106.586 E0.01035
G1 X116.246 Y106.747 E0.01073
G1 X115.896 Y106.844 E0.01082
G1 X115.534 Y106.872 E0.01080
G1 X115.099 Y106.841 E0.01299
G1 X114.757 Y106.751 E0.01055
G1 X114.517 Y106.621 E0.00813
G1 X114.215 Y106.398 E0.01116
G1 X113.928 Y105.881 E0.01765
G1 X113.829 Y105.514 E0.01129
G1 X113.793 Y104.962 E0.01649
G1 X113.840 Y104.375 E0.01752
G1 X114.241 Y104.375 E0.01194
G1 X113.757 Y103.469 E0.03061
G1 X114.263 Y103.192 E0.01719
G1 X114.622 Y103.061 E0.01140
G1 X115.017 Y102.972 E0.01205
G1 X115.276 Y102.948 E0.00775
G1 X115.678 Y102.954 E0.01199
G1 X116.000 Y103.006 E0.00970
G1 X116.422 Y103.163 E0.01343
G1 X116.626 Y103.292 E0.00717
G1 X116.849 Y103.477 E0.00863
G1 X117.094 Y103.801 E0.01211
G1 X117.235 Y104.132 E0.01071
G1 X117.295 Y104.375 E0.00746
G1 X117.673 Y104.375 E0.01126
G1 X117.189 Y103.469 E0.03061
G1 X117.695 Y103.192 E0.01719
G1 X118.054 Y103.061 E0.01140
G1 X118.449 Y102.972 E0.01205
G1 X118.708 Y102.948 E0.00775
G1 X119.110 Y102.954 E0.01199
G1 X119.432 Y103.006 E0.00970
G1 X119.855 Y103.163 E0.01343
G1 X120.058 Y103.292 E0.00717
G1 X120.281 Y103.477 E0.00863
G1 X120.448 Y103.699 E0.00828
G1 X120.608 Y103.637 E0.00510
G1 X120.559 Y103.123 E0.01538
G1 X121.027 Y102.974 E0.01463
G1 X121.377 Y102.941 E0.01047
G1 X121.726 Y102.977 E0.01048
G1 X121.911 Y103.030 E0.00571
G1 X122.292 Y103.250 E0.01310
G1 X122.528 Y103.559 E0.01160
G1 X122.608 Y103.748 E0.00611
G1 X122.637 Y103.972 E0.00672
G1 X122.801 Y104.001 E0.00494
G1 X122.943 Y103.729 E0.00915
G1 X123.170 Y103.425 E0.01129
G1 X123.648 Y103.114 E0.01698
G1 X124.006 Y102.994 E0.01125
G1 X124.418 Y102.948 E0.01236
G1 X124.745 Y102.951 E0.00972
G1 X125.196 Y103.014 E0.01359
G1 X125.466 Y103.114 E0.00857
G1 X125.706 Y103.256 E0.00829
G1 X125.948 Y103.429 E0.00887
G1 X126.185 Y103.745 E0.01177
G1 X126.340 Y103.694 E0.00486
G1 X126.340 Y103.062 E0.01883
G1 X131.325 Y103.062 E0.14850
G1 X131.379 Y103.200 E0.00442
G1 X131.631 Y103.060 E0.00859
G1 X131.848 Y102.992 E0.00677
G1 X132.107 Y102.952 E0.00780
G1 X132.484 Y102.959 E0.01124
G1 X132.756 Y103.025 E0.00834
G1 X133.071 Y103.173 E0.01036
G1 X133.315 Y103.386 E0.00964
G1 X133.380 Y103.471 E0.00319
G1 X133.534 Y103.419 E0.00483
G1 X133.534 Y103.062 E0.01064
G1 X134.829 Y103.062 E0.03858
G1 X134.883 Y103.200 E0.00442
G1 X135.135 Y103.060 E0.00859
G1 X135.352 Y102.992 E0.00677
G1 X135.611 Y102.952 E0.00780
G1 X135.988 Y102.959 E0.01124
G1 X136.260 Y103.025 E0.00834
G1 X136.575 Y103.173 E0.01036
G1 X136.819 Y103.386 E0.00964
G1 X137.087 Y103.735 E0.01312
G1 X137.155 Y103.068 E0.01997
G1 X137.231 Y102.799 E0.00833
G1 X137.320 Y102.623 E0.00587
G1 X137.480 Y102.403 E0.00812
G1 X137.676 Y102.185 E0.00871
G1 X138.098 Y101.940 E0.01453
G1 X138.364 Y101.835 E0.00852
G1 X138.643 Y101.777 E0.00851
G1 X138.969 Y101.748 E0.00974
G1 X139.418 Y101.756 E0.01337
G1 X139.925 Y101.850 E0.01535
G1 X140.277 Y101.976 E0.01115
G1 X140.721 Y102.212 E0.01497
G1 X141.133 Y102.417 F7200.000
G1 X141.779 Y101.922
G1 F1200
G1 X140.583 Y101.285 E0.04037
G1 X140.122 Y101.120 E0.01458
G1 X139.494 Y101.003 E0.01903
G1 X138.942 Y100.993 E0.01644
G1 X138.532 Y101.030 E0.01225
G1 X138.147 Y101.110 E0.01174
G1 X137.776 Y101.257 E0.01187
G1 X137.474 Y101.423 E0.01026
G1 X137.187 Y101.600 E0.01006
G1 X136.894 Y101.928 E0.01308
G1 X136.674 Y102.228 E0.01107
G1 X136.610 Y102.356 E0.00427
G1 X136.512 Y102.310 E0.00320
G1 X136.085 Y102.206 E0.01309
G1 X135.559 Y102.197 E0.01566
G1 X135.181 Y102.256 E0.01142
G1 X135.016 Y102.307 E0.00515
G1 X132.997 Y102.307 E0.06012
G1 X132.581 Y102.206 E0.01275
G1 X132.056 Y102.197 E0.01566
G1 X131.677 Y102.256 E0.01142
G1 X131.512 Y102.307 E0.00515
G1 X125.459 Y102.307 E0.18028
G1 X125.382 Y102.279 E0.00244
G1 X124.800 Y102.197 E0.01751
G1 X124.379 Y102.194 E0.01254
G1 X123.843 Y102.254 E0.01608
G1 X123.317 Y102.429 E0.01650
G1 X122.866 Y102.723 E0.01603
G1 X122.449 Y102.455 E0.01477
G1 X122.185 Y102.324 E0.00879
G1 X121.871 Y102.233 E0.00973
G1 X121.394 Y102.185 E0.01427
G1 X120.866 Y102.233 E0.01579
G1 X120.140 Y102.465 E0.02271
G1 X119.625 Y102.273 E0.01636
G1 X119.177 Y102.201 E0.01353
G1 X118.679 Y102.193 E0.01481
G1 X118.331 Y102.225 E0.01042
G1 X117.841 Y102.336 E0.01496
G1 X117.383 Y102.504 E0.01454
G1 X117.065 Y102.677 E0.01079
G1 X116.759 Y102.484 E0.01076
G1 X116.193 Y102.273 E0.01799
G1 X115.745 Y102.201 E0.01353
G1 X115.247 Y102.193 E0.01481
G1 X114.899 Y102.225 E0.01042
G1 X114.409 Y102.336 E0.01496
G1 X113.951 Y102.504 E0.01454
G1 X112.739 Y103.165 E0.04111
G1 X113.122 Y103.882 E0.02422
G1 X113.037 Y104.957 E0.03210
G1 X113.081 Y105.638 E0.02035
G1 X113.221 Y106.156 E0.01596
G1 X113.443 Y106.583 E0.01433
G1 X113.651 Y106.919 E0.01178
G1 X114.111 Y107.259 E0.01705
G1 X114.477 Y107.457 E0.01240
G1 X114.975 Y107.588 E0.01534
G1 X115.537 Y107.628 E0.01676
G1 X116.026 Y107.590 E0.01463
G1 X116.517 Y107.455 E0.01516
G1 X116.976 Y107.226 E0.01527
G1 X117.227 Y107.026 E0.00958
G1 X117.543 Y107.259 E0.01170
G1 X117.909 Y107.457 E0.01240
G1 X118.407 Y107.588 E0.01534
G1 X118.969 Y107.628 E0.01676
G1 X119.458 Y107.590 E0.01463
G1 X119.949 Y107.455 E0.01516
G1 X120.179 Y107.340 E0.00766
G1 X120.180 Y108.676 E0.03979
G1 X123.416 Y108.676 E0.09638
G1 X123.416 Y107.415 E0.03756
G1 X123.596 Y107.495 E0.00587
G1 X124.087 Y107.596 E0.01494
G1 X124.564 Y107.628 E0.01423
G1 X125.129 Y107.583 E0.01690
G1 X125.640 Y107.465 E0.01560
G1 X125.640 Y108.436 E0.02891
G1 X130.712 Y108.436 E0.15109
G1 X130.712 Y107.457 E0.02914
G1 X130.891 Y107.527 E0.00571
G1 X131.254 Y107.596 E0.01102
G1 X131.595 Y107.622 E0.01018
G1 X132.274 Y107.597 E0.02025
G1 X132.783 Y107.496 E0.01544
G1 X133.040 Y107.417 E0.00802
G1 X133.379 Y107.285 E0.01083
G1 X133.637 Y107.152 E0.00864
G1 X134.027 Y107.384 E0.01353
G1 X134.395 Y107.527 E0.01175
G1 X134.758 Y107.596 E0.01102
G1 X135.099 Y107.622 E0.01018
G1 X135.778 Y107.597 E0.02025
G1 X136.236 Y107.506 E0.01391
G1 X138.582 Y107.506 E0.06988
G1 X138.743 Y107.563 E0.00508
G1 X139.299 Y107.634 E0.01671
G1 X139.910 Y107.549 E0.01838
G1 X140.467 Y107.298 E0.01819
G1 X140.858 Y106.985 E0.01493
G1 X141.140 Y106.642 E0.01323
G1 X141.312 Y106.360 E0.00985
G1 X141.438 Y106.053 E0.00987
G1 X141.533 Y105.741 E0.00970
G1 X141.600 Y105.280 E0.01388
G1 X142.758 Y106.398 E0.04793
G1 X143.114 Y106.785 E0.01568
G1 X143.428 Y107.165 E0.01467
G1 X143.695 Y107.531 E0.01348
G1 X143.917 Y107.881 E0.01236
G1 X144.097 Y108.216 E0.01132
G1 X144.236 Y108.536 E0.01040
G1 X144.339 Y108.843 E0.00966
G1 X144.411 Y109.142 E0.00915
G1 X144.473 Y109.735 E0.01778
G1 X144.434 Y110.459 E0.02159
G1 X144.244 Y111.681 E0.03683
G1 X144.166 Y112.402 E0.02160
G1 X144.181 Y113.072 E0.01998
G1 X144.307 Y113.765 E0.02097
G1 X144.430 Y114.155 E0.01218
G1 X144.651 Y114.680 E0.01699
G1 X144.843 Y115.049 E0.01238
G1 X145.161 Y115.576 E0.01833
